!!!COM:	Japart, Jean
!!!CDT:	~1450//-~1507//
!!!OTL:	Je cuide / De tous biens plaine
!!!AGN:	Song; Chanson
!!!SCT:	Jap3013
!!!SCA:	Jap3013
!!!voices:	4
**kern	**kern	**kern	**kern
*staff4	*staff3	*staff2	*staff1
*Ivox	*Ivox	*Ivox	*Ivox
*I"Bassus	*I"Tenor	*I"Altus	*I"Discantus
*I'B	*I'T	*I'A	*I'D
*clefF4	*clefGv2	*clefGv2	*clefG2
*k[b-]	*k[b-]	*k[b-]	*k[b-]
*M2/1	*M2/1	*M2/1	*M2/1
*met(C|)	*met(C|)	*met(C|)	*met(C|)
=1-	=1-	=1-	=1-
1.G	0r	0G	0r
4F	.	.	.
4E	.	.	.
=2	=2	=2	=2
2D	0r	1B-	0r
2.E	.	.	.
.	.	1B-	.
4D	.	.	.
[2G	.	.	.
=3	=3	=3	=3
2G]	0r	1A	0r
4F#i	.	.	.
4E	.	.	.
1F#i	.	1A	.
=4	=4	=4	=4
1G	[0G	2G	0r
.	.	2.B-	.
2r	.	.	.
.	.	4c	.
2GG	.	2d	.
=5	=5	=5	=5
2C	0G]	2e-i	0r
2BB-	.	2d	.
1C	.	1e-i	.
=6	=6	=6	=6
4GG	0B-	2.d	0r
4AA	.	.	.
4BB-	.	.	.
4C	.	4e	.
2D	.	2f	.
[2E	.	[2g	.
=7	=7	=7	=7
2E]	0A	2g]	0r
4D	.	4f#i	.
4C	.	4e	.
1D	.	1f#i	.
=8	=8	=8	=8
1GG	1G	2.g	1.g
.	.	4f	.
2r	[1B-	1d	.
2D	.	.	2f
=9	=9	=9	=9
2E	1B-]	2r	1g
2G	.	2e	.
2F	1c	1f	1a
2A	.	.	.
=10	=10	=10	=10
1G	0d	1.g	1.b-
2r	.	.	.
[2D	.	4f	2a
.	.	4e	.
=11	=11	=11	=11
2D]	0r	2d	2b-
2C	.	2e	4a
.	.	.	4g
2.D	.	2d	2.f
.	.	4c	.
4E	.	4B-	4g
=12	=12	=12	=12
4F	1r	2A	4a
4G	.	.	4b-
2A	.	2F	2cc
2G	1d	2G	2b-
2F	.	2A	[2a
=13	=13	=13	=13
2E-	1e-	2B-	2a]
2C	.	2c	1g
1D	1d	1A	.
.	.	.	2f#i
=14	=14	=14	=14
2r	1B-	1G	[0g
2GG	.	.	.
2C	2c	2r	.
[2GG	2B-	2G	.
=15	=15	=15	=15
4GG]	1d	2.B-	0g]
4AA	.	.	.
2BB-	.	.	.
.	.	8cL	.
.	.	8dJ	.
2C	2c	2e-i	.
2BB-	2d	2d	.
=16	=16	=16	=16
2C	2G	4e-i	0r
.	.	4f	.
2GG	2B-	1g	.
1D	1A	.	.
.	.	2f#i	.
=17	=17	=17	=17
2GG	1G	1g	1r
2.C	.	.	.
.	2r	1e	1g
4D	.	.	.
2E	2G	.	.
=18	=18	=18	=18
2D	1F	2f	1a
4C	.	4e	.
4BB-	.	4d	.
1AA	1F	1c	1cc
=19	=19	=19	=19
0GG	2G	2r	1b-
.	1B-	1d	.
.	.	.	1b-
.	4A	4c	.
.	4G	4B-	.
=20	=20	=20	=20
0r	2.A	2.c	1.a
.	4B-	4d	.
.	2c	2e	.
.	[2d	2f	4g
.	.	.	4f
=21	=21	=21	=21
1r	2d]	1g	1e
.	2c#i	.	.
1D	1d	1f	1d
=22	=22	=22	=22
1E	2r	1e	1g
.	2B-	.	.
2F	2A	2r	2f
2G	2B-	[2g	2d
=23	=23	=23	=23
1C	1c	4g]	4e
.	.	4f	4d
.	.	2e	4c
.	.	.	4B-
2D	2F	2d	2A
2GG	2G	2B-	2B-
=24	=24	=24	=24
2FF	2A	2c	2A
2BB-	2D	2G	1d
1AA	1E	1A	.
.	.	.	2c#i
=25	=25	=25	=25
2r	1D	1F	0d
2.BB-	.	.	.
.	2r	1f	.
4AA	.	.	.
2BB-	2d	.	.
=26	=26	=26	=26
2C	2c	2e	0r
1GG	2B-	1d	.
.	1G	.	.
2BB-	.	[2g	.
=27	=27	=27	=27
2C	1A	2g]	1r
2D	.	2f#i	.
2GG	2G	1g	1d
[2G	[2B-	.	.
=28	=28	=28	=28
4G]	2B-]	2r	1g
4F	.	.	.
2E	2c	2e	.
1D	1A	2f#i	1a
.	.	4e	.
.	.	4f#i	.
=29	=29	=29	=29
1GG	1G	1g	1b-
2r	1r	2f	2a
2G	.	2d	2b-
=30	=30	=30	=30
2C	0r	1e-i	2g
2E-	.	.	2.cc
1BB-	.	2f	.
.	.	.	4b-
.	.	2d	[2b-
=31	=31	=31	=31
1F	0r	1c	2b-]
.	.	.	2a
1BB-	.	2B-	1b-
.	.	2d	.
=32	=32	=32	=32
2r	0r	2e-i	2cc
2GG	.	1d	1b-
2BB-	.	.	.
2C	.	4c	4a
.	.	4B-	4g
=33	=33	=33	=33
1.D	0r	1.A	[0f
[2BB-	.	[2d	.
=34	=34	=34	=34
2BB-]	1B-	2d]	0f]
4AA	.	4c	.
4GG	.	4B-	.
1FF	1A	1c	.
=35	=35	=35	=35
1.BB-	1F	1d	0r
.	[1G	2r	.
[2C	.	[2e-i	.
=36	=36	=36	=36
4C]	2G]	4e-i]	1r
4BB-	.	4d	.
4AA	4F#i	4c	.
4GG	4E	4B-	.
1AA	1F#i	1c	1a
=37	=37	=37	=37
1GG	1G	2B-	2.b-
.	.	1d	.
.	.	.	4a
1r	1r	.	2b-
.	.	4c	[2a
.	.	4B-	.
=38	=38	=38	=38
1r	0r	4c	2a]
.	.	4B-	.
.	.	4A	1g
.	.	4G	.
1D	.	1A	.
.	.	.	2f#i
=39	=39	=39	=39
1E	0r	1G	1.g
2C	.	[1c	.
[2F	.	.	[2a
=40	=40	=40	=40
2F]	0r	2c]	2a]
2E	.	2c	2g
1D	.	2d	1f
.	.	2Bni	.
=41	=41	=41	=41
1C	2r	1c	1.e
.	2G	.	.
2AA	1A	2r	.
[2D	.	2A	[2f
=42	=42	=42	=42
2D]	2F	2B-	2f]
2C	1G	2c	2e
2.BB-	.	2d	[1d
.	2D	4c	.
4C	.	4B-	.
=43	=43	=43	=43
2D	2F	2A	2d]
2GG	2G	2B-	4c#i
.	.	.	4Bni
1AA	1E	1A	1c#i
=44	=44	=44	=44
1r	0D	1F	[0d
1BB-	.	2r	.
.	.	2F	.
=45	=45	=45	=45
2.GG	1r	2G	0d]
.	.	2.B-	.
4AA	.	.	.
2.BB-	1D	.	.
.	.	4c	.
.	.	[2d	.
4C	.	.	.
=46	=46	=46	=46
1D	1F	2d]	0r
.	.	4c	.
.	.	4B-	.
1D	1F	1A	.
=47	=47	=47	=47
2GG	0G	2B-	1r
1C	.	2c	.
.	.	1d	1d
2BB-	.	.	.
=48	=48	=48	=48
2C	1r	1c	1e
2E	.	.	.
1D	1A	[1d	1f
=49	=49	=49	=49
1GG	1B-	1d]	1.g
1r	1c	1e	.
.	.	.	[2a
=50	=50	=50	=50
1D	1d	1f	1a]
2E	2r	2e	2g
[2G	2d	[2d	[2b-
=51	=51	=51	=51
2G]	1e-i	4d]	2b-]
.	.	4B-	.
2C	.	2c	4a
.	.	.	4g
1D	1d	1A	2.f#i
.	.	.	4e
=52	=52	=52	=52
1.GG	1.B-	1G	2g
.	.	.	2.dd
.	.	2g	.
.	.	.	4cc
2AA	2c	2f	4b-
.	.	.	4a
=53	=53	=53	=53
1GG	1.d	1g	1.b-
2G	.	2r	.
2A	2c	2e	[2a
=54	=54	=54	=54
2D	2d	2f	4a]
.	.	.	4g
2G	2B-	2.d	1g
1D	1A	.	.
.	.	4c	.
.	.	2d	2f#i
=55	=55	=55	=55
0GGl	0Gl	1d	0gl
.	.	1dl	.
==	==	==	==
*-	*-	*-	*-
!!!RDF**kern: l=long note in original notation
!!!RDF**kern: i=editorial accidental
!!!ENC:	Chris Gage 09-18-2013
!!!END:	2013/10/24/
!!!EED:	Jesse Rodin
!!!EEV:	2013/12/19/
!!!ONB:	Translated from MusicXML and edited on 2013/12/19/ by Craig Sapp
!!muse2ps: C^@{COM}^i2I150v85,85,85,100Q16
